img/icon-calendar-add.svg

<svg width="128" height="128" viewBox="0 0 128 128" fill="none" xmlns="http://www.w3.org/2000/svg">
<path d="M92.6516 15.2558H72.3971V8.71318H92.6516V15.2558ZM101.78 23.938C105.061 23.938 107.746 21.1473 107.746 17.7364V6.20155C107.746 2.7907 105.061 0 101.78 0C98.4982 0 95.8136 2.7907 95.8136 6.20155V17.7364C95.7837 21.1473 98.4684 23.938 101.78 23.938ZM54.1412 8.71318H33.8867V15.2558H54.1412V8.71318ZM63.2692 23.938C66.5505 23.938 69.2351 21.1473 69.2351 17.7364V6.20155C69.2351 2.7907 66.5505 0 63.2692 0C59.9879 0 57.3032 2.7907 57.3032 6.20155V17.7364C57.3032 21.1473 59.9879 23.938 63.2692 23.938ZM24.7588 23.938C28.0401 23.938 30.7248 21.1473 30.7248 17.7364V6.20155C30.7248 2.7907 28.0401 0 24.7588 0C21.4775 0 18.7928 2.7907 18.7928 6.20155V17.7364C18.7928 21.1473 21.4775 23.938 24.7588 23.938ZM67.7138 102.698V56.124H60.495C60.2265 57.8915 59.7194 59.3798 58.8842 60.5891C58.0788 61.7984 57.0944 62.7597 55.9012 63.4729C54.7378 64.2171 53.3955 64.7132 51.9338 64.9922C50.4721 65.2713 48.921 65.3953 47.3698 65.3643V72.4961H58.6455V102.698H67.7138V102.698ZM32.9322 93.8605C31.5302 95.1628 29.8 95.814 27.7418 95.814C26.4293 95.814 25.2659 95.5659 24.3113 95.0698C23.3568 94.5736 22.5514 93.9225 21.925 93.1163C21.2985 92.3101 20.7914 91.3178 20.4633 90.2015C20.1352 89.0853 19.9264 87.876 19.8965 86.6357H11.2459C11.216 89.3333 11.574 91.7519 12.3794 93.8295C13.155 95.907 14.2885 97.6744 15.7502 99.1318C17.2118 100.589 18.9718 101.674 21.0301 102.419C23.0883 103.163 25.3852 103.535 27.9208 103.535C30.0983 103.535 32.1864 103.194 34.185 102.543C36.1836 101.891 37.9734 100.899 39.4948 99.6279C41.0459 98.3566 42.2689 96.7442 43.1638 94.8527C44.0886 92.9612 44.536 90.7597 44.536 88.3411C44.536 85.6744 43.8201 83.4108 42.4181 81.4884C41.0161 79.5969 39.0771 78.3256 36.6013 77.7674V77.6434C38.6893 77.0233 40.2703 75.845 41.3144 74.1085C42.3584 72.3721 42.8954 70.3876 42.8954 68.124C42.8954 66.0465 42.4479 64.186 41.553 62.6046C40.6581 61.0233 39.4948 59.6589 38.0629 58.5426C36.6311 57.4264 35.0203 56.5891 33.2305 56.062C31.4407 55.5039 29.6509 55.2248 27.8611 55.2248C25.5642 55.2248 23.4761 55.6279 21.5968 56.4031C19.7175 57.1783 18.1067 58.2636 16.7644 59.6899C15.422 61.1163 14.378 62.8217 13.6323 64.7752C12.8865 66.7597 12.4689 68.9302 12.3794 71.3178H21.0301C21.0002 68.9302 21.567 66.9457 22.7304 65.3643C23.8937 63.7829 25.6537 63.0078 27.9506 63.0078C29.6211 63.0078 31.0827 63.5349 32.3654 64.5891C33.6481 65.6434 34.2745 67.1938 34.2745 69.1783C34.2745 70.5116 33.9762 71.5659 33.3498 72.3721C32.7234 73.1783 31.9478 73.7674 30.9932 74.2016C30.0387 74.6357 28.9946 74.8837 27.8909 74.9767C26.7872 75.0698 25.7432 75.0698 24.7588 74.9767V81.6434C25.8625 81.6434 27.0259 81.6744 28.2489 81.7364C29.4719 81.7985 30.5756 82.0465 31.6197 82.4806C32.6339 82.9147 33.4989 83.5659 34.1552 84.4961C34.8115 85.4264 35.1396 86.7907 35.1396 88.5581C35.0203 90.7907 34.3342 92.5581 32.9322 93.8605ZM113.264 45.4884H74.0974V52.031H113.264V45.4884V45.4884ZM74.0974 66.2016H113.264V59.6589H74.0974V66.2016ZM6.2941 116.713V40.6512H120.244V74.6357C122.571 76.2481 124.689 78.1705 126.538 80.3721V8.71318H110.907V15.2558H120.244V34.1085H6.2941V15.2558H15.6309V8.71318H0V123.287H79.1088C77.4384 121.302 76.0065 119.101 74.8432 116.744H6.2941V116.713ZM128 101.86C128 116.279 116.724 128 102.853 128C88.9825 128 77.7068 116.279 77.7068 101.86C77.7068 87.4419 88.9825 75.7209 102.853 75.7209C116.724 75.7209 128 87.4419 128 101.86ZM121.109 105.147V98.6047H106.015V82.9147H99.7213V98.6047H84.6274V105.147H99.7213V120.837H106.015V105.147H121.109Z" fill="#FF892F"/>
</svg>

<svg width="128" height="128" fill="none" xmlns="http://www.w3.org/2000/svg"><path d="M92.652 15.256H72.397V8.713h20.255v6.543zm9.128 8.682c3.281 0 5.966-2.79 5.966-6.202V6.202c0-3.411-2.685-6.202-5.966-6.202-3.282 0-5.966 2.79-5.966 6.202v11.534c-.03 3.411 2.654 6.202 5.966 6.202zM54.141 8.713H33.887v6.543H54.14V8.713zm9.128 15.225c3.282 0 5.966-2.79 5.966-6.202V6.202C69.235 2.79 66.551 0 63.27 0c-3.281 0-5.966 2.79-5.966 6.202v11.534c0 3.411 2.685 6.202 5.966 6.202zm-38.51 0c3.281 0 5.966-2.79 5.966-6.202V6.202C30.725 2.79 28.04 0 24.759 0c-3.282 0-5.966 2.79-5.966 6.202v11.534c0 3.411 2.684 6.202 5.966 6.202zm42.955 78.76V56.124h-7.219c-.268 1.767-.776 3.256-1.61 4.465-.806 1.21-1.79 2.17-2.984 2.884-1.163.744-2.506 1.24-3.967 1.52-1.462.278-3.013.402-4.564.371v7.132h11.276v30.202h9.068zm-34.782-8.837c-1.402 1.302-3.132 1.953-5.19 1.953-1.313 0-2.476-.248-3.43-.744-.955-.496-1.76-1.147-2.387-1.954-.627-.806-1.134-1.798-1.462-2.915a13.895 13.895 0 01-.567-3.565h-8.65c-.03 2.697.328 5.116 1.133 7.194.776 2.077 1.91 3.844 3.371 5.302 1.462 1.457 3.222 2.542 5.28 3.287 2.058.744 4.355 1.116 6.89 1.116 2.178 0 4.266-.341 6.265-.992a15.977 15.977 0 005.31-2.915c1.55-1.271 2.774-2.884 3.669-4.775.925-1.892 1.372-4.093 1.372-6.512 0-2.667-.716-4.93-2.118-6.853-1.402-1.891-3.34-3.162-5.817-3.72v-.125c2.088-.62 3.67-1.798 4.713-3.534 1.044-1.737 1.581-3.721 1.581-5.985 0-2.078-.447-3.938-1.342-5.52a13.592 13.592 0 00-3.49-4.061 14.432 14.432 0 00-4.833-2.481 17.952 17.952 0 00-5.369-.837c-2.297 0-4.385.403-6.264 1.178-1.88.775-3.49 1.86-4.833 3.287-1.342 1.426-2.386 3.132-3.132 5.085-.745 1.985-1.163 4.155-1.253 6.543h8.651c-.03-2.388.537-4.372 1.7-5.954 1.164-1.581 2.924-2.356 5.22-2.356 1.671 0 3.133.527 4.415 1.581 1.283 1.054 1.91 2.605 1.91 4.59 0 1.333-.299 2.387-.925 3.193-.627.806-1.402 1.395-2.357 1.83-.954.434-1.998.682-3.102.775a17.582 17.582 0 01-3.132 0v6.666c1.104 0 2.267.031 3.49.093a9.956 9.956 0 013.37.745c1.015.434 1.88 1.085 2.536 2.015.657.93.985 2.295.985 4.062-.12 2.233-.806 4-2.208 5.302zm80.332-48.373H74.097v6.543h39.167v-6.543zM74.097 66.202h39.167v-6.543H74.097v6.543zM6.294 116.713V40.651h113.95v33.985a32.056 32.056 0 016.294 5.736V8.713h-15.631v6.543h9.337v18.852H6.294V15.256h9.337V8.713H0v114.574h79.109a32.5 32.5 0 01-4.266-6.543H6.294v-.031zM128 101.86c0 14.419-11.276 26.14-25.147 26.14-13.87 0-25.146-11.721-25.146-26.14 0-14.418 11.276-26.14 25.146-26.14 13.871 0 25.147 11.722 25.147 26.14zm-6.891 3.287v-6.542h-15.094v-15.69h-6.294v15.69H84.627v6.542h15.094v15.69h6.294v-15.69h15.094z" fill="#FF892F"/></svg>
